static/img/mobile/spinner-size-dark.svg

<svg fill="none" height="176" viewBox="0 0 960 176" width="960" xmlns="http://www.w3.org/2000/svg" xmlns:xlink="http://www.w3.org/1999/xlink"><clipPath id="a"><path d="m0 0h960v176h-960z"/></clipPath><clipPath id="b"><path d="m677 76h87v24h-87z"/></clipPath><g clip-path="url(#a)"><path d="m0 0h479v176h-479z" fill="#252a2e"/><path clip-rule="evenodd" d="m239.5 136c26.51 0 48-21.49 48-48 0-26.5097-21.49-48-48-48v8.7274c21.69 0 39.273 17.583 39.273 39.2727 0 21.6899-17.583 39.2729-39.273 39.2729s-39.273-17.583-39.273-39.2729v-.0001h-8.727c0 26.51 21.49 48 48 48z" fill="#019aeb" fill-rule="evenodd"/><path d="m0 0h479v176h-479z" fill="#252a2e" transform="translate(481)"/><rect fill="#019aeb" height="48" rx="4" width="119" x="661" y="64"/><g clip-path="url(#b)"><path clip-rule="evenodd" d="m689 100c6.627 0 12-5.3726 12-12s-5.373-12-12-12v2.1819c5.422 0 9.818 4.3958 9.818 9.8182s-4.396 9.8182-9.818 9.8182-9.818-4.3958-9.818-9.8182v-.0001h-2.182c0 6.6274 5.373 12 12 12z" fill="#f1f1f6" fill-rule="evenodd"/><path d="m710.719 82.5781h3.398c1.474 0 2.586.2136 3.336.6407.75.427 1.125 1.164 1.125 2.2109 0 .4375-.078.8333-.234 1.1875-.151.3489-.373.638-.664.8672-.292.2239-.651.375-1.078.4531v.0781c.442.0782.836.2162 1.179.4141.349.1979.623.4818.821.8515.203.3698.304.849.304 1.4376 0 .6979-.166 1.2916-.5 1.7812-.328.4896-.799.862-1.414 1.1172-.609.2552-1.333.3828-2.172.3828h-4.101zm1.875 4.711h1.797c.849 0 1.437-.1381 1.765-.4141s.492-.6797.492-1.2109c0-.5417-.195-.9323-.586-1.1719-.385-.2396-1-.3594-1.843-.3594h-1.625zm0 1.5156v3.625h1.976c.875 0 1.49-.1693 1.844-.5078.354-.3386.531-.7969.531-1.375 0-.3542-.08-.6615-.242-.9219-.156-.2604-.414-.4609-.773-.6016-.36-.1458-.844-.2187-1.453-.2187zm16.273-3.4531v8.6484h-1.445l-.25-1.1641h-.102c-.182.2969-.414.5443-.695.7422-.281.1927-.594.336-.937.4297-.344.099-.706.1484-1.086.1484-.651 0-1.209-.1093-1.672-.3281-.459-.2239-.81-.5677-1.055-1.0312-.245-.4636-.367-1.0625-.367-1.7969v-5.6484h1.844v5.3046c0 .6719.135 1.1745.406 1.5079.276.3333.703.5 1.281.5.557 0 1-.1146 1.328-.3438s.56-.5677.695-1.0156c.141-.4479.211-.9974.211-1.6485v-4.3046zm6.102 7.3203c.239 0 .476-.0209.711-.0625.234-.0469.448-.1016.64-.1641v1.3906c-.203.0886-.466.1641-.789.2266s-.659.0937-1.008.0937c-.489 0-.929-.0807-1.32-.2421-.391-.1667-.7-.4506-.93-.8516-.229-.401-.343-.9557-.343-1.6641v-4.6484h-1.18v-.8203l1.266-.6485.601-1.8515h1.156v1.9219h2.477v1.3984h-2.477v4.625c0 .4375.11.763.329.9766.218.2135.507.3203.867.3203zm6.578 0c.239 0 .476-.0209.711-.0625.234-.0469.448-.1016.64-.1641v1.3906c-.203.0886-.466.1641-.789.2266s-.658.0937-1.007.0937c-.49 0-.93-.0807-1.321-.2421-.39-.1667-.7-.4506-.929-.8516-.23-.401-.344-.9557-.344-1.6641v-4.6484h-1.18v-.8203l1.266-.6485.601-1.8515h1.157v1.9219h2.476v1.3984h-2.476v4.625c0 .4375.109.763.328.9766.218.2135.508.3203.867.3203zm11.015-3.0157c0 .7188-.093 1.3568-.281 1.9141-.187.5573-.461 1.0287-.82 1.4141-.359.3802-.792.6718-1.297.875-.505.1979-1.075.2968-1.711.2968-.594 0-1.138-.0989-1.633-.2968-.494-.2032-.924-.4948-1.289-.875-.359-.3854-.638-.8568-.836-1.4141s-.297-1.1953-.297-1.9141c0-.9531.164-1.7604.493-2.4218.333-.6667.807-1.1745 1.421-1.5235.615-.3489 1.347-.5234 2.196-.5234.797 0 1.5.1745 2.109.5234.61.349 1.086.8568 1.43 1.5235.344.6666.515 1.4739.515 2.4218zm-6.273 0c0 .6303.076 1.1693.227 1.6172.156.448.395.7917.718 1.0313.323.2344.74.3515 1.25.3515.511 0 .927-.1171 1.25-.3515.323-.2396.56-.5833.711-1.0313.151-.4479.227-.9869.227-1.6172 0-.6302-.076-1.164-.227-1.6015-.151-.4427-.388-.7787-.711-1.0078-.323-.2344-.742-.3516-1.257-.3516-.761 0-1.316.2552-1.665.7656-.348.5105-.523 1.2422-.523 2.1953zm13.141-4.4687c.974 0 1.731.2526 2.273.7578.547.5.82 1.3047.82 2.4141v5.6406h-1.835v-5.2969c0-.6719-.139-1.1745-.415-1.5078-.276-.3385-.703-.5078-1.281-.5078-.838 0-1.422.2578-1.75.7734-.323.5157-.484 1.2631-.484 2.2422v4.2969h-1.836v-8.6484h1.43l.257 1.1718h.102c.187-.302.419-.5494.695-.7422.282-.1979.594-.3463.938-.4453.349-.0989.711-.1484 1.086-.1484z" fill="#fff"/></g></g></svg>

<svg width="960" height="176" viewBox="0 0 960 176" fill="none" xmlns="http://www.w3.org/2000/svg">
<g clip-path="url(#clip0_314_61622)">
<rect width="479" height="176" fill="#252A2E"/>
<path fill-rule="evenodd" clip-rule="evenodd" d="M239.5 136C266.01 136 287.5 114.51 287.5 88C287.5 61.4903 266.01 40 239.5 40L239.5 48.7274C261.19 48.7274 278.773 66.3104 278.773 88.0001C278.773 109.69 261.19 127.273 239.5 127.273C217.81 127.273 200.227 109.69 200.227 88.0001C200.227 88.0001 200.227 88 200.227 88H191.5C191.5 114.51 212.99 136 239.5 136Z" fill="#019AEB"/>
<rect width="479" height="176" transform="translate(481)" fill="#252A2E"/>
<rect x="661" y="64" width="119" height="48" rx="4" fill="#019AEB"/>
<g clip-path="url(#clip1_314_61622)">
<path fill-rule="evenodd" clip-rule="evenodd" d="M689 100C695.627 100 701 94.6274 701 88C701 81.3726 695.627 76 689 76V78.1819C689 78.1819 689 78.1819 689 78.1819C694.422 78.1819 698.818 82.5777 698.818 88.0001C698.818 93.4225 694.422 97.8183 689 97.8183C683.578 97.8183 679.182 93.4225 679.182 88.0001C679.182 88.0001 679.182 88 679.182 88H677C677 94.6274 682.373 100 689 100Z" fill="#F1F1F6"/>
<path d="M710.719 82.5781H714.117C715.591 82.5781 716.703 82.7917 717.453 83.2188C718.203 83.6458 718.578 84.3828 718.578 85.4297C718.578 85.8672 718.5 86.263 718.344 86.6172C718.193 86.9661 717.971 87.2552 717.68 87.4844C717.388 87.7083 717.029 87.8594 716.602 87.9375V88.0156C717.044 88.0938 717.438 88.2318 717.781 88.4297C718.13 88.6276 718.404 88.9115 718.602 89.2812C718.805 89.651 718.906 90.1302 718.906 90.7188C718.906 91.4167 718.74 92.0104 718.406 92.5C718.078 92.9896 717.607 93.362 716.992 93.6172C716.383 93.8724 715.659 94 714.82 94H710.719V82.5781ZM712.594 87.2891H714.391C715.24 87.2891 715.828 87.151 716.156 86.875C716.484 86.599 716.648 86.1953 716.648 85.6641C716.648 85.1224 716.453 84.7318 716.062 84.4922C715.677 84.2526 715.062 84.1328 714.219 84.1328H712.594V87.2891ZM712.594 88.8047V92.4297H714.57C715.445 92.4297 716.06 92.2604 716.414 91.9219C716.768 91.5833 716.945 91.125 716.945 90.5469C716.945 90.1927 716.865 89.8854 716.703 89.625C716.547 89.3646 716.289 89.1641 715.93 89.0234C715.57 88.8776 715.086 88.8047 714.477 88.8047H712.594ZM728.867 85.3516V94H727.422L727.172 92.8359H727.07C726.888 93.1328 726.656 93.3802 726.375 93.5781C726.094 93.7708 725.781 93.9141 725.438 94.0078C725.094 94.1068 724.732 94.1562 724.352 94.1562C723.701 94.1562 723.143 94.0469 722.68 93.8281C722.221 93.6042 721.87 93.2604 721.625 92.7969C721.38 92.3333 721.258 91.7344 721.258 91V85.3516H723.102V90.6562C723.102 91.3281 723.237 91.8307 723.508 92.1641C723.784 92.4974 724.211 92.6641 724.789 92.6641C725.346 92.6641 725.789 92.5495 726.117 92.3203C726.445 92.0911 726.677 91.7526 726.812 91.3047C726.953 90.8568 727.023 90.3073 727.023 89.6562V85.3516H728.867ZM734.969 92.6719C735.208 92.6719 735.445 92.651 735.68 92.6094C735.914 92.5625 736.128 92.5078 736.32 92.4453V93.8359C736.117 93.9245 735.854 94 735.531 94.0625C735.208 94.125 734.872 94.1562 734.523 94.1562C734.034 94.1562 733.594 94.0755 733.203 93.9141C732.812 93.7474 732.503 93.4635 732.273 93.0625C732.044 92.6615 731.93 92.1068 731.93 91.3984V86.75H730.75V85.9297L732.016 85.2812L732.617 83.4297H733.773V85.3516H736.25V86.75H733.773V91.375C733.773 91.8125 733.883 92.138 734.102 92.3516C734.32 92.5651 734.609 92.6719 734.969 92.6719ZM741.547 92.6719C741.786 92.6719 742.023 92.651 742.258 92.6094C742.492 92.5625 742.706 92.5078 742.898 92.4453V93.8359C742.695 93.9245 742.432 94 742.109 94.0625C741.786 94.125 741.451 94.1562 741.102 94.1562C740.612 94.1562 740.172 94.0755 739.781 93.9141C739.391 93.7474 739.081 93.4635 738.852 93.0625C738.622 92.6615 738.508 92.1068 738.508 91.3984V86.75H737.328V85.9297L738.594 85.2812L739.195 83.4297H740.352V85.3516H742.828V86.75H740.352V91.375C740.352 91.8125 740.461 92.138 740.68 92.3516C740.898 92.5651 741.188 92.6719 741.547 92.6719ZM752.562 89.6562C752.562 90.375 752.469 91.013 752.281 91.5703C752.094 92.1276 751.82 92.599 751.461 92.9844C751.102 93.3646 750.669 93.6562 750.164 93.8594C749.659 94.0573 749.089 94.1562 748.453 94.1562C747.859 94.1562 747.315 94.0573 746.82 93.8594C746.326 93.6562 745.896 93.3646 745.531 92.9844C745.172 92.599 744.893 92.1276 744.695 91.5703C744.497 91.013 744.398 90.375 744.398 89.6562C744.398 88.7031 744.562 87.8958 744.891 87.2344C745.224 86.5677 745.698 86.0599 746.312 85.7109C746.927 85.362 747.659 85.1875 748.508 85.1875C749.305 85.1875 750.008 85.362 750.617 85.7109C751.227 86.0599 751.703 86.5677 752.047 87.2344C752.391 87.901 752.562 88.7083 752.562 89.6562ZM746.289 89.6562C746.289 90.2865 746.365 90.8255 746.516 91.2734C746.672 91.7214 746.911 92.0651 747.234 92.3047C747.557 92.5391 747.974 92.6562 748.484 92.6562C748.995 92.6562 749.411 92.5391 749.734 92.3047C750.057 92.0651 750.294 91.7214 750.445 91.2734C750.596 90.8255 750.672 90.2865 750.672 89.6562C750.672 89.026 750.596 88.4922 750.445 88.0547C750.294 87.612 750.057 87.276 749.734 87.0469C749.411 86.8125 748.992 86.6953 748.477 86.6953C747.716 86.6953 747.161 86.9505 746.812 87.4609C746.464 87.9714 746.289 88.7031 746.289 89.6562ZM759.43 85.1875C760.404 85.1875 761.161 85.4401 761.703 85.9453C762.25 86.4453 762.523 87.25 762.523 88.3594V94H760.688V88.7031C760.688 88.0312 760.549 87.5286 760.273 87.1953C759.997 86.8568 759.57 86.6875 758.992 86.6875C758.154 86.6875 757.57 86.9453 757.242 87.4609C756.919 87.9766 756.758 88.724 756.758 89.7031V94H754.922V85.3516H756.352L756.609 86.5234H756.711C756.898 86.2214 757.13 85.974 757.406 85.7812C757.688 85.5833 758 85.4349 758.344 85.3359C758.693 85.237 759.055 85.1875 759.43 85.1875Z" fill="white"/>
</g>
</g>
<defs>
<clipPath id="clip0_314_61622">
<rect width="960" height="176" fill="white"/>
</clipPath>
<clipPath id="clip1_314_61622">
<rect width="87" height="24" fill="white" transform="translate(677 76)"/>
</clipPath>
</defs>
</svg>
